svg/tab_search.svg

<svg xmlns="http://www.w3.org/2000/svg" viewBox="0 0 24 24"><path d="M7.5 11C5 11 3 13 3 15.5c0 .88.25 1.71.69 2.4L.61 21 2 22.39l3.12-3.07c.69.43 1.51.68 2.38.68 2.5 0 4.5-2 4.5-4.5S10 11 7.5 11m0 7a2.5 2.5 0 0 1 0-5 2.5 2.5 0 0 1 0 5M23 5v14c0 1.11-.89 2-2 2H10.95c.81-.5 1.5-1.19 2.02-2H21V9h-8V5H3v5.82C1.77 12 1 13.66 1 15.5V5c0-1.1.9-2 2-2h18a2 2 0 0 1 2 2"/></svg>

<svg xmlns="http://www.w3.org/2000/svg" id="mdi-tab-search" viewBox="0 0 24 24"><path d="M7.5 11C5 11 3 13 3 15.5C3 16.38 3.25 17.21 3.69 17.9L.61 21L2 22.39L5.12 19.32C5.81 19.75 6.63 20 7.5 20C10 20 12 18 12 15.5S10 11 7.5 11M7.5 18C6.12 18 5 16.88 5 15.5S6.12 13 7.5 13 10 14.12 10 15.5 8.88 18 7.5 18M23 5V19C23 20.11 22.11 21 21 21H10.95C11.76 20.5 12.45 19.81 12.97 19H21V9H13V5H3V10.82C1.77 12 1 13.66 1 15.5V5C1 3.9 1.9 3 3 3H21C22.11 3 23 3.9 23 5Z" /></svg>
